source/img/icons-sprite/star.svg

<svg width="26" height="25" viewBox="0 0 26 25" fill="none" xmlns="http://www.w3.org/2000/svg">
<path d="M11.8046 1.25614C12.1439 0.428706 13.3157 0.428709 13.655 1.25614L16.3018 7.71033C16.4455 8.0606 16.7746 8.29972 17.1521 8.32809L24.1083 8.8509C25.0001 8.91792 25.3622 10.0324 24.6801 10.6108L19.3598 15.1225C19.071 15.3673 18.9453 15.7542 19.035 16.122L20.6873 22.8993C20.8992 23.7682 19.9512 24.457 19.1903 23.987L13.2553 20.3212C12.9332 20.1223 12.5264 20.1223 12.2043 20.3212L6.26934 23.987C5.50847 24.457 4.56046 23.7682 4.77229 22.8993L6.42466 16.122C6.51433 15.7542 6.38862 15.3673 6.09988 15.1225L0.779496 10.6108C0.0974163 10.0324 0.45952 8.91792 1.35131 8.8509L8.30752 8.32809C8.68503 8.29972 9.01415 8.0606 9.15779 7.71033L11.8046 1.25614Z" fill="#FBAC37"/>
</svg>

<svg width="26" height="25" fill="none" xmlns="http://www.w3.org/2000/svg"><path d="M11.805 1.256c.339-.827 1.51-.827 1.85 0l2.647 6.454a1 1 0 0 0 .85.618l6.956.523c.892.067 1.254 1.181.572 1.76l-5.32 4.511a1 1 0 0 0-.325 1l1.652 6.777c.212.87-.736 1.558-1.497 1.088l-5.935-3.666a1 1 0 0 0-1.05 0l-5.936 3.666c-.76.47-1.709-.219-1.497-1.088l1.653-6.777a1 1 0 0 0-.325-1L.78 10.611c-.683-.579-.32-1.693.571-1.76l6.957-.523a1 1 0 0 0 .85-.618l2.647-6.454z" fill="#FBAC37"/></svg>
